style-guide/assets/wds-icons-bold-small.svg

<svg viewBox="0 0 18 18" xmlns="http://www.w3.org/2000/svg">
  <path d="M9.5 15H6v-5h3.5c1.378 0 2.5 1.121 2.5 2.5S10.878 15 9.5 15zM6 4h2c1.103 0 2 .896 2 2s-.897 2-2 2H6V4zm5.236 4.349C11.716 7.688 12 6.877 12 6c0-2.205-1.794-4-4-4H5a1 1 0 0 0-1 1v13a1 1 0 0 0 1 1h4.5c2.481 0 4.5-2.019 4.5-4.5a4.506 4.506 0 0 0-2.764-4.151z" fill-rule="evenodd"/>
</svg>

<svg xmlns="http://www.w3.org/2000/svg" xmlns:xlink="http://www.w3.org/1999/xlink" width="18" height="18" viewBox="0 0 18 18">
  <defs>
    <path id="bold-a" d="M9.5,15 L6,15 L6,10 L9.5,10 C10.878,10 12,11.121 12,12.5 C12,13.879 10.878,15 9.5,15 Z M6,4 L8,4 C9.103,4 10,4.896 10,6 C10,7.104 9.103,8 8,8 L6,8 L6,4 Z M11.236,8.349 C11.716,7.688 12,6.877 12,6 C12,3.795 10.206,2 8,2 L5,2 C4.448,2 4,2.447 4,3 L4,16 C4,16.553 4.448,17 5,17 L9.5,17 C11.981,17 14,14.981 14,12.5 C14,10.634 12.858,9.029 11.236,8.349 Z"/>
  </defs>
  <use fill-rule="evenodd" xlink:href="#bold-a"/>
</svg>
